X: 432
T: Lord Send the French without Delay
N:"Slow" "collected by J.O'Neill"
N:Irish title: gan maill a .ti.gearna cuir na francai.de
B:O'Neill's 432
Z:Transcribed by henrik.norbeck@mailbox.swipnet.se
M:C
L:1/8
K:D
(AB/c/) | d2 dc B2 AF | BAFD E2 FA | B>AFE FAB>^G | A6 (AB/c/) |
d2 dc B2 AF | BAFD E2 FG | A>BAF FDE>D | D4- D2 ||
z2 | D2 DF A2 Ad | B2 AF A2 FE | D2 FA d>dcB | c6 (AB/c/) |
d d2 B c2 BA | BAFD E2 FG | A>BAF FDE>D | D4- D2 ||


